X: 30969
T: Oyster Wife's Rant, The
R: reel
M: 4/4
K: Adorian
edef g2fe|d2dB d2d2|edef g2fe|dBgB A2A2:|
e2ed eAAB|d2dB d2d2|e2ed eAAd|BdeB A2A2|
e2ed eAAB|d2dB d2d2|edef g2fe|dBgB A2A2||

